src/main/resources/icons/PythonGherkinIcons/icons/com/jetbrains/python/gherkin/behave.svg

<svg xmlns="http://www.w3.org/2000/svg" width="16" height="16" viewBox="0 0 16 16">
  <path fill="#C79955" fill-rule="evenodd" d="M3,14 L3,2 L8.38285714,2 C9.75428571,2 10.8342857,2.37714286 11.52,3.06285714 C12.0514286,3.59428571 12.3257143,4.26285714 12.3257143,5.05142857 L12.3257143,5.08571429 C12.3257143,6.52571429 11.5028571,7.29714286 10.6114286,7.76 C12.0171429,8.24 12.9942857,9.04571429 12.9942857,10.6742857 L12.9942857,10.7085714 C12.9942857,12.8514286 11.2285714,14 8.55428571,14 L3,14 Z M10.2171429,5.42857143 L10.2171429,5.39428571 C10.2171429,4.45142857 9.46285714,3.86857143 8.10857143,3.86857143 L5.07428571,3.86857143 L5.07428571,7.05714286 L7.95428571,7.05714286 C9.30857143,7.05714286 10.2171429,6.52571429 10.2171429,5.42857143 Z M10.8857143,10.4514286 C10.8857143,9.44 10.08,8.84 8.41714286,8.84 L5.07428571,8.84 L5.07428571,12.1314286 L8.57142857,12.1314286 C9.99428571,12.1314286 10.8857143,11.5657143 10.8857143,10.4857143 L10.8857143,10.4514286 Z"/>
</svg>

<svg xmlns="http://www.w3.org/2000/svg" width="16" height="16" viewBox="0 0 16 16"><rect id="frame" width="16" height="16" fill="none"/><path fill="#C79955" fill-rule="evenodd" d="M3 14V2h5.383c1.371 0 2.451.377 3.137 1.063.531.531.806 1.2.806 1.988v.035c0 1.44-.823 2.211-1.715 2.674 1.406.48 2.383 1.286 2.383 2.914v.035c0 2.142-1.765 3.291-4.44 3.291H3zm7.217-8.571v-.035c0-.943-.754-1.525-2.108-1.525H5.074v3.188h2.88c1.355 0 2.263-.531 2.263-1.628zm.669 5.022c0-1.011-.806-1.611-2.469-1.611H5.074v3.291h3.497c1.423 0 2.315-.565 2.315-1.645v-.035z"/></svg>
